X: 1275
T: Bill McGlashan's Jig
B: australian traditional tunes wiki
M:6/8
L:1/8
R: Jig
Q: 3/8=100
K:G
V:1 
def|"G"g2GG2B|G2Bd2g|"Am"f2ee2^d|e3-e2=f|
"D7"f2=f^f2=f|fe=f^f2e|"G"e2dd2^c|d3def|
g2G GAG|G2Bd2g|"Am"f2ee2^d|e3-e2e/f/|
"C"g2gf2e|"D7"d2ed2c|"G"B3A3|G3-G2z||
|: "G"BcdG2g | "D7"f2ed2c | "G"BcdG2B | "D7"A3-A2z|
"G"Bcd G2g|"D7"f2e d2c|Bcd A2A|1 "G"G3-G2z:|2 "G"G3-G ga||
|:"G"b2dg2b|"D7"a2gf2a|"G"b2a gfe|"D7"d3-def|
"G"g2GB2g|"D7"f2Ac2e|"G"ded "D7"c2A|1"G"G3-G ga:|2"G"G3|]
% abcbook-tune_id 6342d53afb957c9a6b4025f8


% abcbook-boost 0
% abcbook-tablature 
% abcbook-transpose 
% abcbook-lastupdated 1665324357081
% abcbook-soundfonts 
% abcbook-repeats 1
% NFF Book 2006

